src/actions/16/view-media-playlist.svg

<svg xmlns="http://www.w3.org/2000/svg" viewBox="0 0 16 16">
    <path d="M4 2a1 1 0 0 0-1 1 1 1 0 0 0 1 1 1 1 0 0 0 1-1 1 1 0 0 0-1-1zm2 0v1h8V2H6zm0 2v1h6V4H6zM4 8a1 1 0 0 0-1 1 1 1 0 0 0 1 1 1 1 0 0 0 1-1 1 1 0 0 0-1-1zm2 0v1h8V8H6zm0 2v1h4v-1H6zm5 0v1h3v-1h-3zm1 3v1h2v-1h-2z" style="fill:currentColor;fill-opacity:1;stroke:none;color:#050505;opacity:.7"/>
</svg>

<svg xmlns="http://www.w3.org/2000/svg" viewBox="0 0 16 16">
  <defs id="defs3051">
    <style type="text/css" id="current-color-scheme">
      .ColorScheme-Text {
        color:#363636;
      }
      </style>
  </defs>
 <path style="fill:currentColor;fill-opacity:1;stroke:none" 
       d="M 4 2 A 1 1 0 0 0 3 3 A 1 1 0 0 0 4 4 A 1 1 0 0 0 5 3 A 1 1 0 0 0 4 2 z M 6 2 L 6 3 L 8 3 L 14 3 L 14 2 L 8 2 L 6 2 z M 6 4 L 6 5 L 8 5 L 12 5 L 12 4 L 8 4 L 6 4 z M 4 8 A 1 1 0 0 0 3 9 A 1 1 0 0 0 4 10 A 1 1 0 0 0 5 9 A 1 1 0 0 0 4 8 z M 6 8 L 6 9 L 8 9 L 14 9 L 14 8 L 8 8 L 6 8 z M 6 10 L 6 11 L 8 11 L 10 11 L 10 10 L 8 10 L 6 10 z M 11 10 L 11 11 L 12.875 11 L 13 11 L 14 11 L 14 10 L 13 10 L 12.875 10 L 11 10 z M 12 13 L 12 14 L 14 14 L 14 13 L 12 13 z "
     class="ColorScheme-Text"
     />
</svg>
